X: 10942
Q: "Very Slow"
M: C
L: 1/16
K: D
~B3dB2AB d2B2B2 A/B/c | d3e {de}f2ed B4 B2fa |
b2af a2fe {g}f2ed e2f2 | d3B (AB).d.F A4 A2dc |\
|: fg |\
a2ba2f2 afab {b}a3f | (ag).f.e (de).f.g a4 a2fa |\
b3d' b2a2 babd' b2a2 | b2af e2fa b4 b2fa |
(ba).f.b (af).e.a (gf)(ed) e2f2 | ~d3B (AB)d.F {F}A4 A2dc |\


